static/assets/template/assets/img/icons/essential/detailed/XLS_File.svg

<svg height="149" viewBox="0 0 146 149" width="146" xmlns="http://www.w3.org/2000/svg"><g fill="none" fill-rule="evenodd" transform="translate(2 1)"><path d="m140.6 36.4 1.2 103.4c0 3.5-2.8 6.3-6.3 6.3h-100.5c-3.5 0-6.3-2.8-6.3-6.3v-132.9c0-3.5 2.8-6.3 6.3-6.3h72.9z" fill-rule="nonzero"/><g stroke-linecap="round" stroke-linejoin="round" stroke-width="3"><path d="m45.5 70.1h82.7"/><path d="m45.5 82.9h82.7"/><path d="m45.5 95.8h82.7"/><path d="m74 124.1h3.6"/><path d="m46 124.1h21.4"/><path d="m128.2 60.5v43.8c0 1.9-1.5 3.5-3.4 3.5h-75.9c-1.9 0-3.4-1.6-3.4-3.5v-43.8c0-1.9 1.5-3.5 3.4-3.5h75.9c1.8 0 3.4 1.6 3.4 3.5z"/><path d="m47 20.3h48.3"/><path d="m47 31.8h18.5"/></g><path d="m107.9.7v28.5c0 3.9 3.5 7.3 7.4 7.3h25.3" fill-rule="nonzero"/><path d="m111.4 3.5v25.9c0 3.6 3.2 6.6 6.7 6.6h23" fill-rule="nonzero"/><path d="m111.4 8.7v25.9c0 3.6 3.2 6.6 6.7 6.6h23v-5.2" fill-rule="nonzero"/><path d="m107.9 22.9v6.2c0 3.9 3.5 7.3 7.4 7.3h25.3" stroke-linecap="round" stroke-linejoin="round" stroke-width="3"/><path d="m107.9.7v15.3" stroke-linecap="round" stroke-linejoin="round" stroke-width="3"/><path d="m28.6 34.6v-1.5" stroke-linecap="round" stroke-linejoin="round" stroke-width="3"/><path d="m28.6 25.8v-18.9c0-3.5 2.8-6.3 6.3-6.3h72.9l32.7 35.8 1.2 103.4c0 3.5-2.8 6.3-6.3 6.3h-100.4c-3.5 0-6.3-2.8-6.3-6.3v-89.5" stroke-linecap="round" stroke-linejoin="round" stroke-width="3"/><path d="m59.3 84.8h-53.8c-2.8 0-5.1-2.3-5.1-5.1v-24.5c0-2.8 2.3-5.1 5.1-5.1h53.8c2.8 0 5.1 2.3 5.1 5.1v24.5c-.1 2.8-2.3 5.1-5.1 5.1z" fill-rule="nonzero"/><path d="m59.9 84.8h-48.3c-2.5 0-4.4-2-4.4-4.4v-21c0-2.5 2-4.4 4.4-4.4h48.3c2.5 0 4.4 2 4.4 4.4v21c0 2.4-2 4.4-4.4 4.4z" fill-rule="nonzero"/><path d="m59.3 84.8h-53.8c-2.8 0-5.1-2.3-5.1-5.1v-24.5c0-2.8 2.3-5.1 5.1-5.1h53.8c2.8 0 5.1 2.3 5.1 5.1v24.5c-.1 2.8-2.3 5.1-5.1 5.1z" stroke-linecap="round" stroke-linejoin="round" stroke-width="3"/><text font-family="Helvetica" font-size="20.9718"><tspan x="11.6079" y="74.8013">X</tspan></text><text font-family="Helvetica" font-size="20.9718"><tspan x="27.8726" y="74.8013">L</tspan></text><text font-family="Helvetica" font-size="20.9718"><tspan x="41.147" y="74.8013">S</tspan></text><path d="m99.5 57v49.8" stroke-linecap="round" stroke-linejoin="round" stroke-width="3"/><path d="m73.3 57v49.8" stroke-linecap="round" stroke-linejoin="round" stroke-width="3"/></g></svg>

<?xml version="1.0" encoding="UTF-8"?>
<svg width="146px" height="149px" viewBox="0 0 146 149" version="1.1" xmlns="http://www.w3.org/2000/svg" xmlns:xlink="http://www.w3.org/1999/xlink">
    <!-- Generator: Sketch 51.2 (57519) - http://www.bohemiancoding.com/sketch -->
    <title>XLS_File</title>
    <desc>Created with Sketch.</desc>
    <defs></defs>
    <g id="Page-1" stroke="none" stroke-width="1" fill="none" fill-rule="evenodd">
        <g id="XLS_File" transform="translate(2.000000, 1.000000)">
            <path d="M140.6,36.4 L141.8,139.8 C141.8,143.3 139,146.1 135.5,146.1 L35,146.1 C31.5,146.1 28.7,143.3 28.7,139.8 L28.7,6.9 C28.7,3.4 31.5,0.6 35,0.6 L107.9,0.6 L140.6,36.4 Z" id="Shape" class="fill-neutral" fill-rule="nonzero"></path>
            <path d="M45.5,70.1 L128.2,70.1" id="Shape" class="stroke-primary-300" stroke-width="3" stroke-linecap="round" stroke-linejoin="round"></path>
            <path d="M45.5,82.9 L128.2,82.9" id="Shape" class="stroke-primary-300" stroke-width="3" stroke-linecap="round" stroke-linejoin="round"></path>
            <path d="M45.5,95.8 L128.2,95.8" id="Shape" class="stroke-primary-300" stroke-width="3" stroke-linecap="round" stroke-linejoin="round"></path>
            <path d="M74,124.1 L77.6,124.1" id="Shape" class="stroke-primary-300" stroke-width="3" stroke-linecap="round" stroke-linejoin="round"></path>
            <path d="M46,124.1 L67.4,124.1" id="Shape" class="stroke-primary-300" stroke-width="3" stroke-linecap="round" stroke-linejoin="round"></path>
            <path d="M128.2,60.5 L128.2,104.3 C128.2,106.2 126.7,107.8 124.8,107.8 L48.9,107.8 C47,107.8 45.5,106.2 45.5,104.3 L45.5,60.5 C45.5,58.6 47,57 48.9,57 C62.4,57 111,57 124.8,57 C126.6,57 128.2,58.6 128.2,60.5 Z" id="Shape" class="stroke-primary-300" stroke-width="3" stroke-linecap="round" stroke-linejoin="round"></path>
            <path d="M47,20.3 L95.3,20.3" id="Shape" class="stroke-primary" stroke-width="3" stroke-linecap="round" stroke-linejoin="round"></path>
            <path d="M47,31.8 L65.5,31.8" id="Shape" class="stroke-primary" stroke-width="3" stroke-linecap="round" stroke-linejoin="round"></path>
            <path d="M107.9,0.7 L107.9,29.2 C107.9,33.1 111.4,36.5 115.3,36.5 L140.6,36.5" id="Shape" class="fill-neutral" fill-rule="nonzero"></path>
            <path d="M111.4,3.5 L111.4,29.4 C111.4,33 114.6,36 118.1,36 L141.1,36" id="Shape" class="fill-primary-300" fill-rule="nonzero"></path>
            <path d="M111.4,8.7 L111.4,34.6 C111.4,38.2 114.6,41.2 118.1,41.2 L141.1,41.2 L141.1,36" id="Shape" class="fill-primary-300" fill-rule="nonzero"></path>
            <path d="M107.9,22.9 L107.9,29.1 C107.9,33 111.4,36.4 115.3,36.4 L140.6,36.4" id="Shape" class="stroke-primary" stroke-width="3" stroke-linecap="round" stroke-linejoin="round"></path>
            <path d="M107.9,0.7 L107.9,16" id="Shape" class="stroke-primary" stroke-width="3" stroke-linecap="round" stroke-linejoin="round"></path>
            <path d="M28.6,34.6 L28.6,33.1" id="Shape" class="stroke-primary" stroke-width="3" stroke-linecap="round" stroke-linejoin="round"></path>
            <path d="M28.6,25.8 L28.6,6.9 C28.6,3.4 31.4,0.6 34.9,0.6 L107.8,0.6 L140.5,36.4 L141.7,139.8 C141.7,143.3 138.9,146.1 135.4,146.1 L35,146.1 C31.5,146.1 28.7,143.3 28.7,139.8 L28.7,50.3" id="Shape" class="stroke-primary" stroke-width="3" stroke-linecap="round" stroke-linejoin="round"></path>
            <path d="M59.3,84.8 L5.5,84.8 C2.7,84.8 0.4,82.5 0.4,79.7 L0.4,55.2 C0.4,52.4 2.7,50.1 5.5,50.1 L59.3,50.1 C62.1,50.1 64.4,52.4 64.4,55.2 L64.4,79.7 C64.3,82.5 62.1,84.8 59.3,84.8 Z" id="Shape" class="fill-neutral" fill-rule="nonzero"></path>
            <path d="M59.9,84.8 L11.6,84.8 C9.1,84.8 7.2,82.8 7.2,80.4 L7.2,59.4 C7.2,56.9 9.2,55 11.6,55 L59.9,55 C62.4,55 64.3,57 64.3,59.4 L64.3,80.4 C64.3,82.8 62.3,84.8 59.9,84.8 Z" id="Shape" class="fill-primary-100" fill-rule="nonzero"></path>
            <path d="M59.3,84.8 L5.5,84.8 C2.7,84.8 0.4,82.5 0.4,79.7 L0.4,55.2 C0.4,52.4 2.7,50.1 5.5,50.1 L59.3,50.1 C62.1,50.1 64.4,52.4 64.4,55.2 L64.4,79.7 C64.3,82.5 62.1,84.8 59.3,84.8 Z" id="Shape" class="stroke-primary" stroke-width="3" stroke-linecap="round" stroke-linejoin="round"></path>
            <text id="X" class="fill-primary" font-family="Helvetica" font-size="20.9718" font-weight="normal">
                <tspan x="11.6079" y="74.8013">X</tspan>
            </text>
            <text id="L" class="fill-primary" font-family="Helvetica" font-size="20.9718" font-weight="normal">
                <tspan x="27.8726" y="74.8013">L</tspan>
            </text>
            <text id="S" class="fill-primary" font-family="Helvetica" font-size="20.9718" font-weight="normal">
                <tspan x="41.147" y="74.8013">S</tspan>
            </text>
            <path d="M99.5,57 L99.5,106.8" id="Shape" class="stroke-primary-300" stroke-width="3" stroke-linecap="round" stroke-linejoin="round"></path>
            <path d="M73.3,57 L73.3,106.8" id="Shape" class="stroke-primary-300" stroke-width="3" stroke-linecap="round" stroke-linejoin="round"></path>
        </g>
    </g>
</svg>
